Origami/16x16/apps/anbox.svg

<svg width="16" height="16" version="1" xmlns="http://www.w3.org/2000/svg">
 <rect transform="matrix(0,-1,-1,0,0,0)" x="-16" y="-15" width="15" height="15" rx=".75" ry=".75" style="fill:#109d8f"/>
 <path d="m5.3007812 2.300539c-0.028812-0.00687-0.058734-0.00212-0.083984 0.015625-0.051 0.033-0.060484 0.1056563-0.021484 0.1601564l0.6464844 0.9218749c-1.0275007 0.469-0.7497976 1.5625625-0.8417976 2.6015625h5c-0.09195-1.038474 0.188778-2.1341636-0.837891-2.6015625l0.646485-0.9218749c0.039-0.0545 0.02752-0.1251563-0.02149-0.1601564-0.051-0.035-0.123109-0.017391-0.162109 0.037109l-0.669922 0.9570313c-0.4435-0.172-0.935625-0.2675781-1.453125-0.2675781s-1.010125 0.095578-1.453125 0.2675781l-0.6718699-0.9570309c-0.0195-0.02725-0.047359-0.045859-0.076172-0.052734zm0.7246098 1.9902344c0.215 0 0.386718 0.1699063 0.386718 0.3789063s-0.174218 0.3808593-0.386718 0.3808593c-0.2150004 0-0.3886722-0.1698593-0.3886722-0.3808593 0-0.209 0.1741718-0.3789063 0.3886722-0.3789063zm3 0c0.213 0 0.386718 0.1699063 0.386718 0.3789063s-0.174218 0.3808593-0.386718 0.3808593c-0.215 0-0.388672-0.1698593-0.388672-0.3808593 0-0.209 0.174172-0.3789063 0.388672-0.3789063zm-4.023391 2.7089844v3.7971172c0 0.344 0.16 0.703125 0.5 0.703125h0.498v1.6875c0 0.449 0 0.8125 0.5 0.8125s0.501953-0.3635 0.501953-0.8125v-1.6875h1v1.6875c0 0.449-0.039022 0.8125 0.498047 0.8125 0.5 0 0.5-0.249564 0.5-0.8125v-1.6875h0.504c0.338 0 0.5-0.35965 0.5-0.703125v-3.7971172zm-1.4785625 0.00195c-0.52289-0.0013969-0.5234375 0.3773931-0.5234375 0.8437532v1.308836c0 0.46686 5.479e-4 0.84919 0.5234375 0.847656 0.47711-0.0014 0.4765625-0.381296 0.4765625-0.847656v-1.308836c0-0.4668599 5.475e-4 -0.8451501-0.4765625-0.84375zm7.9550785 0c-0.478478-0.0013969-0.478516 0.3773931-0.478516 0.8437532v1.308836c0 0.46686 3.8e-5 0.84894 0.478516 0.847656 0.521522-0.0014 0.521484-0.381296 0.521484-0.847656v-1.308836c0-0.4668599 3.8e-5 -0.8451501-0.521484-0.84375z" style="fill:#ffffff"/>
</svg>

<svg xmlns="http://www.w3.org/2000/svg" width="16" height="16" version="1">
 <rect style="fill:#109d8f" width="15" height="15" x="-16" y="-15" rx=".75" ry=".75" transform="matrix(0,-1,-1,0,0,0)"/>
 <path style="fill:#ffffff" d="m 5.3007812,2.300539 c -0.028812,-0.00687 -0.058734,-0.00212 -0.083984,0.015625 -0.051,0.033 -0.060484,0.1056563 -0.021484,0.1601564 L 5.8417976,3.3981953 C 4.8142969,3.8671953 5.092,4.9607578 5,5.9997578 h 5 C 9.90805,4.9612838 10.188778,3.8655942 9.162109,3.3981953 L 9.808594,2.4763204 c 0.039,-0.0545 0.02752,-0.1251563 -0.02149,-0.1601564 -0.051,-0.035 -0.123109,-0.017391 -0.162109,0.037109 L 8.955073,3.3103043 c -0.4435,-0.172 -0.935625,-0.2675781 -1.453125,-0.2675781 -0.5175,0 -1.010125,0.095578 -1.453125,0.2675781 L 5.3769531,2.3532734 c -0.0195,-0.02725 -0.047359,-0.045859 -0.076172,-0.052734 z M 6.025391,4.2907734 c 0.215,0 0.386718,0.1699063 0.386718,0.3789063 0,0.209 -0.174218,0.3808593 -0.386718,0.3808593 -0.2150004,0 -0.3886722,-0.1698593 -0.3886722,-0.3808593 0,-0.209 0.1741718,-0.3789063 0.3886722,-0.3789063 z m 3,0 c 0.213,0 0.386718,0.1699063 0.386718,0.3789063 0,0.209 -0.174218,0.3808593 -0.386718,0.3808593 -0.215,0 -0.388672,-0.1698593 -0.388672,-0.3808593 0,-0.209 0.174172,-0.3789063 0.388672,-0.3789063 z M 5.002,6.9997578 v 3.7971172 c 0,0.344 0.16,0.703125 0.5,0.703125 H 6 v 1.6875 C 6,13.6365 6,14 6.5,14 7,14 7.001953,13.6365 7.001953,13.1875 V 11.5 h 1 v 1.6875 C 8.001953,13.6365 7.962931,14 8.5,14 9,14 9,13.750436 9,13.1875 V 11.5 h 0.504 c 0.338,0 0.5,-0.35965 0.5,-0.703125 V 6.9997578 Z m -1.4785625,0.00195 C 3.0005475,7.0003109 3,7.3791009 3,7.845461 v 1.308836 c 0,0.46686 5.479e-4,0.84919 0.5234375,0.847656 C 4.0005475,10.000553 4,9.620657 4,9.154297 V 7.845461 C 4,7.3786011 4.0005475,7.0003109 3.5234375,7.001711 Z m 7.9550785,0 C 11.000038,7.0003109 11,7.3791009 11,7.845461 v 1.308836 c 0,0.46686 3.8e-5,0.84894 0.478516,0.847656 C 12.000038,10.000553 12,9.620657 12,9.154297 V 7.845461 c 0,-0.4668599 3.8e-5,-0.8451501 -0.521484,-0.84375 z"/>
</svg>
